img/icons/FrameCart.svg

<svg width="24" height="24" viewBox="0 0 24 24" fill="none" xmlns="http://www.w3.org/2000/svg">
<path d="M6.45996 13.62V6.60999C6.45996 5.29999 7.51996 4.23999 8.82996 4.23999H16.35C17.66 4.23999 18.72 5.29999 18.72 6.60999V17.39C18.72 18.7 17.66 19.76 16.35 19.76H12.84" stroke="#8C8D92" stroke-width="1.35" stroke-miterlimit="10" stroke-linecap="round"/>
<path d="M11.6797 7.91992H16.2097" stroke="#8C8D92" stroke-width="1.35" stroke-miterlimit="10" stroke-linecap="round"/>
<path d="M11.6797 10.76H16.2097" stroke="#8C8D92" stroke-width="1.35" stroke-miterlimit="10" stroke-linecap="round"/>
<path d="M11.6797 13.6101H16.2097" stroke="#8C8D92" stroke-width="1.35" stroke-miterlimit="10" stroke-linecap="round"/>
<path d="M8.87012 7.91992H9.32012" stroke="#8C8D92" stroke-width="1.35" stroke-miterlimit="10" stroke-linecap="round"/>
<path d="M8.87012 10.76H9.32012" stroke="#8C8D92" stroke-width="1.35" stroke-miterlimit="10" stroke-linecap="round"/>
<path d="M8.87012 13.6101H9.32012" stroke="#8C8D92" stroke-width="1.35" stroke-miterlimit="10" stroke-linecap="round"/>
<path d="M11.35 16.0999C11.29 15.9199 11.17 15.7699 11.01 15.6699C10.89 15.5999 10.77 15.5799 10.66 15.5699C10.56 15.5699 10.44 15.5699 10.31 15.5699H5.25996L5.19996 15.2299C5.17996 15.1499 5.16996 15.0599 5.14996 14.9899C5.12996 14.9099 5.09996 14.8299 5.03996 14.7399C4.95996 14.6199 4.83996 14.5299 4.70996 14.4699C4.61996 14.4299 4.52996 14.4099 4.44996 14.4099C4.37996 14.4099 4.28996 14.4099 4.19996 14.4099H3.59996C3.38996 14.4099 3.20996 14.5799 3.20996 14.7999C3.20996 15.0199 3.37996 15.1899 3.59996 15.1899H4.19996C4.29996 15.1899 4.34996 15.1899 4.38996 15.1899C4.38996 15.2299 4.40996 15.2799 4.42996 15.3699L5.26996 19.9199C5.29996 20.0999 5.45996 20.2399 5.64996 20.2399H9.69996C9.77996 20.2399 9.86996 20.2399 9.93996 20.2399C10.02 20.2399 10.1 20.2199 10.19 20.1799C10.32 20.1199 10.43 20.0399 10.51 19.9199C10.57 19.8399 10.6 19.7599 10.62 19.6799C10.64 19.6099 10.66 19.5299 10.68 19.4499L11.29 16.8099C11.32 16.6899 11.35 16.5699 11.36 16.4699C11.37 16.3699 11.38 16.2399 11.34 16.1099L11.35 16.0999ZM9.92996 19.2699C9.90996 19.3599 9.89996 19.4099 9.88996 19.4399C9.84996 19.4399 9.79996 19.4399 9.70996 19.4399H5.97996L5.40996 16.3299H10.32C10.46 16.3299 10.54 16.3299 10.6 16.3299C10.6 16.3899 10.57 16.4599 10.54 16.5999L9.92996 19.2399V19.2699Z" fill="#8B8C91" stroke="#8B8C91" stroke-width="0.5" stroke-miterlimit="10"/>
<path d="M6.04004 22.1199C6.31618 22.1199 6.54004 21.896 6.54004 21.6199C6.54004 21.3437 6.31618 21.1199 6.04004 21.1199C5.7639 21.1199 5.54004 21.3437 5.54004 21.6199C5.54004 21.896 5.7639 22.1199 6.04004 22.1199Z" fill="#8B8C91" stroke="#8B8C91" stroke-width="0.35" stroke-miterlimit="10"/>
<path d="M9.66992 22.1199C9.94606 22.1199 10.1699 21.896 10.1699 21.6199C10.1699 21.3437 9.94606 21.1199 9.66992 21.1199C9.39378 21.1199 9.16992 21.3437 9.16992 21.6199C9.16992 21.896 9.39378 22.1199 9.66992 22.1199Z" fill="#8B8C91" stroke="#8B8C91" stroke-width="0.35" stroke-miterlimit="10"/>
</svg>

<svg width="24" height="24" fill="none" xmlns="http://www.w3.org/2000/svg"><path d="M6.46 13.62V6.61c0-1.31 1.06-2.37 2.37-2.37h7.52c1.31 0 2.37 1.06 2.37 2.37v10.78c0 1.31-1.06 2.37-2.37 2.37h-3.51M11.68 7.92h4.53m-4.53 2.84h4.53m-4.53 2.85h4.53M8.87 7.92h.45m-.45 2.84h.45m-.45 2.85h.45" stroke="#8C8D92" stroke-width="1.35" stroke-miterlimit="10" stroke-linecap="round"/><path d="M11.35 16.1a.806.806 0 0 0-.34-.43.812.812 0 0 0-.35-.1h-5.4l-.06-.34c-.02-.08-.03-.17-.05-.24a.766.766 0 0 0-.11-.25.79.79 0 0 0-.33-.27.651.651 0 0 0-.26-.06H3.6a.39.39 0 0 0-.39.39c0 .22.17.39.39.39h.79c0 .04.02.09.04.18l.84 4.55c.03.18.19.32.38.32h4.29c.08 0 .16-.02.25-.06a.74.74 0 0 0 .43-.5c.02-.07.04-.15.06-.23l.61-2.64c.03-.12.06-.24.07-.34.01-.1.02-.23-.02-.36l.01-.01Zm-1.42 3.17c-.02.09-.03.14-.04.17H5.98l-.57-3.11h5.19c0 .06-.03.13-.06.27l-.61 2.64v.03Z" fill="#8B8C91" stroke="#8B8C91" stroke-width=".5" stroke-miterlimit="10"/><path d="M6.04 22.12a.5.5 0 1 0 0-1 .5.5 0 0 0 0 1Zm3.63 0a.5.5 0 1 0 0-1 .5.5 0 0 0 0 1Z" fill="#8B8C91" stroke="#8B8C91" stroke-width=".35" stroke-miterlimit="10"/></svg>
